dist/assets/images/product-icons/tank.svg

<svg width="105" height="106" viewBox="0 0 105 106" fill="none" xmlns="http://www.w3.org/2000/svg">
<path opacity="0.6" fill-rule="evenodd" clip-rule="evenodd" d="M45.4214 0.23895C42.1717 0.861242 39.2424 2.39211 36.7793 4.75554C33.6028 7.80319 31.8528 11.5502 31.4769 16.1076L31.3315 17.8711L30.3183 18.1143C28.1944 18.6239 27.2649 19.9134 27.108 22.5685C27.0557 23.4514 26.9263 24.174 26.8201 24.174C26.2485 24.174 23.2663 25.6464 21.7146 26.6949C17.3855 29.6197 14.334 34.389 13.4257 39.6495C13.029 41.9468 13.011 48.1455 13.3992 48.6619C14.0563 49.5353 15.511 49.5241 15.9784 48.6418C16.1031 48.4065 16.1977 46.9208 16.2001 45.162C16.2024 43.4739 16.2947 41.46 16.4054 40.6863C17.1909 35.1996 20.5971 30.4961 25.5116 28.1122C28.7328 26.5496 28.6743 26.5563 39.3712 26.5563H48.9079L50.8111 27.2096C56.3207 29.101 60.3125 33.4027 61.7213 38.9669C62.1288 40.5761 62.1362 41.166 62.1362 71.7491V102.893H39.1661H16.196V78.1738V53.4551L15.7214 53.0045C15.0916 52.4071 14.2491 52.4305 13.6232 53.0627L13.1197 53.5711V62.9025V72.2338H12.1344C10.0316 72.2338 8.26437 73.7264 7.90342 75.8072L7.76867 76.5841H4.30634H0.844013L0.419067 77.1299C-0.110886 77.8102 -0.121961 78.465 0.385637 79.0987C0.765258 79.5731 0.883185 79.5899 4.28235 79.6533L7.78733 79.7187V84.366V89.0133H4.72432C0.932202 89.0133 0.019141 89.3203 0.000477836 90.6018C-0.0208515 92.0722 0.659227 92.3278 4.59429 92.3278H7.77954L7.89747 92.8975C8.35502 95.1074 9.67129 96.2973 11.8106 96.4351L13.1197 96.5192V99.7058V102.893H9.52137C5.97413 102.893 5.91568 102.9 5.41957 103.401C4.77784 104.049 4.77784 104.843 5.41957 105.491L5.92286 106H52.7677H99.6123L100.153 105.571C100.859 105.009 100.889 103.98 100.219 103.343L99.7437 102.893H82.5808H65.4176L65.416 72.6999C65.415 53.9379 65.3366 41.8231 65.2093 40.7001C64.6086 35.4049 61.8322 30.5092 57.606 27.2925C55.954 26.0351 53.5255 24.7283 51.9961 24.2736L51.1639 24.0265L51.0578 22.2669C50.966 20.7423 50.8737 20.404 50.3675 19.7336C49.652 18.7861 48.7463 18.2026 47.7286 18.0339C47.3057 17.9637 46.9595 17.7924 46.9595 17.653C46.9595 17.0108 47.4376 16.1302 47.9023 15.9164C48.614 15.5889 68.8789 15.5835 69.5898 15.9106C70.5049 16.332 70.9161 17.9594 70.1072 17.9594C69.186 17.9594 67.9622 18.4965 67.254 19.2118C66.0023 20.4761 65.716 22.4824 66.5378 24.2316C66.8541 24.905 66.8563 25.0126 66.5624 25.4656C65.715 26.7719 66.0005 29.0641 67.1742 30.3762C67.9205 31.2106 68.51 31.5172 69.7758 31.7289L70.5449 31.8576V54.9545C70.5449 80.3501 70.5065 79.5008 71.8045 82.7987C73.072 86.0189 75.708 89.4336 78.4546 91.4132C80.0998 92.5992 82.767 93.8715 84.7986 94.4398C86.3514 94.8742 86.909 94.9025 95.2043 94.9719L103.969 95.0451L104.485 94.5245C105.099 93.9034 105.144 93.1751 104.608 92.5062L104.217 92.0171L95.533 91.8984C87.3157 91.7861 86.7673 91.7548 85.3169 91.3152C80.4823 89.8498 76.6057 86.3377 74.7605 81.7513C73.5991 78.864 73.6212 79.392 73.6212 54.6344V31.8387H78.3383H83.0554V48.9289C83.0554 65.743 83.0619 66.0258 83.4655 66.4335C83.9838 66.957 84.9172 66.9653 85.545 66.4519L86.0292 66.0559L86.1317 48.9039L86.2343 31.7521L86.8495 31.6228C87.6496 31.4548 88.6059 30.9463 89.0469 30.4541C90.0399 29.3458 90.3383 26.947 89.6523 25.5878C89.2899 24.8698 89.2895 24.817 89.6437 24.1456C90.1533 23.1796 90.1453 21.2817 89.6273 20.2559C89.0969 19.2058 88.1445 18.4221 87.0653 18.1477L86.1877 17.9243L86.0489 16.2329C85.6608 11.5053 83.911 7.77834 80.6187 4.66708C78.3319 2.50626 76.3434 1.38327 73.096 0.418967C72.0041 0.0947703 70.583 0.0525108 59.3675 0.0106656C49.6694 -0.0255864 46.5342 0.0257879 45.4214 0.23895ZM72.4932 3.52732C78.5471 5.30616 82.3882 10.1057 82.9239 16.5611L83.04 17.9594H78.3592H73.6784L73.5587 16.9377C73.33 14.9886 71.9748 13.2369 70.3398 12.7774C69.3826 12.5085 48.1218 12.5085 47.1646 12.7774C45.5296 13.2369 44.1744 14.9886 43.9457 16.9377L43.826 17.9594H39.2401H34.6541L34.6572 16.5611C34.6685 11.2948 38.3983 5.99867 43.4629 4.0566C45.9093 3.1184 46.7635 3.06806 59.3675 3.11819C69.9891 3.16045 71.3944 3.20437 72.4932 3.52732ZM47.6628 21.3921C47.8465 21.5779 47.985 22.0681 47.985 22.5337V23.3497L39.1148 23.2959L30.2447 23.2418L30.1813 22.5808C30.1378 22.1275 30.2506 21.7857 30.5402 21.4932C30.9525 21.0768 31.1578 21.0667 39.1515 21.0667C46.3225 21.0667 47.3804 21.1071 47.6628 21.3921ZM86.6299 21.3921C86.8071 21.5713 86.9521 21.9375 86.9521 22.206C86.9521 23.3543 87.021 23.3454 78.0276 23.3454H69.7477L69.4286 22.8849C69.0065 22.2765 69.0258 21.9796 69.5194 21.481C69.9159 21.0806 70.203 21.0667 78.1186 21.0667C85.2896 21.0667 86.3475 21.1071 86.6299 21.3921ZM86.706 26.7013C86.8413 26.838 86.9521 27.1922 86.9521 27.4885C86.9521 27.7847 86.8413 28.1389 86.706 28.2756C86.5224 28.4611 84.3058 28.5242 77.9968 28.5242C69.6915 28.5242 69.5297 28.5164 69.3102 28.1021C69.0707 27.6502 69.2233 26.8608 69.5984 26.6112C69.7241 26.5275 73.5693 26.4577 78.1435 26.4558C84.3419 26.4535 86.5226 26.5161 86.706 26.7013ZM28.3989 36.2242C26.5787 36.5722 24.4296 37.7755 22.9478 39.2764C19.9658 42.2963 19.0138 46.4686 20.3858 50.5037C21.9045 54.97 25.8919 57.7908 30.6686 57.7784C34.7446 57.7678 38.3314 55.531 40.1842 51.844C44.2333 43.7863 37.2504 34.5315 28.3989 36.2242ZM32.0292 39.3219C36.8865 40.3631 39.555 45.5859 37.5582 50.1449C36.9772 51.4722 35.3937 53.1023 33.9396 53.8704C32.7841 54.4807 32.5692 54.5221 30.5523 54.5221C28.5308 54.5221 28.3236 54.4819 27.1683 53.8665C25.6638 53.065 24.4109 51.7885 23.6441 50.2754C23.119 49.2397 23.0665 48.9383 23.0665 46.961C23.0665 44.9947 23.1221 44.6717 23.6445 43.597C24.6747 41.4782 26.4267 40.0433 28.758 39.4092C30.1022 39.0435 30.6604 39.0286 32.0292 39.3219ZM29.6087 40.6082C28.5047 41.5673 29.1036 43.2322 30.5523 43.2322C31.394 43.2322 31.8764 42.8291 32.0954 41.9427C32.2084 41.4859 32.1168 41.2588 31.6145 40.7515C30.8696 39.9991 30.3522 39.9623 29.6087 40.6082ZM25.8353 42.1964C24.8972 43.144 25.6092 44.7651 26.9633 44.7651C27.865 44.7651 28.5014 44.1362 28.5014 43.2455C28.5014 42.0027 26.7206 41.3021 25.8353 42.1964ZM33.0284 42.328C32.2521 43.3246 32.6836 44.4867 33.949 44.8076C35.2442 45.1359 36.2454 43.1823 35.2811 42.2082C34.6586 41.5795 33.5659 41.6377 33.0284 42.328ZM24.4815 45.787C23.3641 46.7578 24.0177 48.4111 25.5186 48.4111C27.0775 48.4111 27.5346 46.1891 26.1107 45.5337C25.3877 45.201 25.1053 45.2449 24.4815 45.787ZM34.7339 45.7889C33.6172 46.7592 34.2128 48.4111 35.6796 48.4111C36.6074 48.4111 37.1835 47.842 37.1835 46.9256C37.1835 46.2011 36.3515 45.3037 35.6796 45.3037C35.4665 45.3037 35.0409 45.5221 34.7339 45.7889ZM25.8709 49.5119C24.9476 50.5048 25.6503 52.1398 27.0002 52.1398C27.6524 52.1398 28.5014 51.2611 28.5014 50.5862C28.5014 49.864 27.6474 49.0325 26.9058 49.0325C26.5555 49.0325 26.1363 49.2266 25.8709 49.5119ZM33.1067 49.5411C32.8299 49.8207 32.6032 50.291 32.6032 50.5862C32.6032 51.3083 33.4572 52.1398 34.1988 52.1398C35.5463 52.1398 36.1927 50.2989 35.1392 49.462C34.4224 48.8923 33.7218 48.9196 33.1067 49.5411ZM29.4902 51.1092C28.9879 51.6166 28.8962 51.8436 29.0092 52.3004C29.2186 53.1476 29.7156 53.5899 30.4588 53.5899C31.9814 53.5899 32.6305 51.9517 31.498 50.9678C30.7525 50.32 30.2355 50.3564 29.4902 51.1092ZM84.0808 70.1041C83.1144 70.4566 83.0554 70.6853 83.0556 74.0785C83.0558 77.202 83.0751 77.3505 83.6417 78.5603C84.3567 80.0866 85.7408 81.3782 87.2884 81.9632C88.3375 82.3595 88.8627 82.3844 96.1982 82.3844H103.993L104.497 81.8758C104.773 81.5962 105 81.1259 105 80.8307C105 80.5355 104.773 80.0653 104.497 79.7856L103.993 79.2771H96.4278C88.9058 79.2771 88.8572 79.2744 87.9585 78.7954C86.433 77.9826 86.1391 77.2024 86.135 73.9545C86.1319 71.4125 86.0995 71.1852 85.6703 70.7085C85.1717 70.1544 84.5702 69.9257 84.0808 70.1041ZM27.704 75.0346C24.779 75.8623 22.2776 77.9863 20.9172 80.7968C19.3068 84.1239 19.3567 87.3107 21.0729 90.7741C21.7669 92.1745 24.2183 94.6038 25.6302 95.2903C29.155 97.0043 33.3504 96.7866 36.3974 94.7316C39.0324 92.9545 40.8175 90.1231 41.2586 87.0213C41.9617 82.0766 39.0371 77.167 34.2923 75.3266C32.748 74.7278 29.3242 74.5759 27.704 75.0346ZM13.1197 84.3524V93.3636H12.3403C11.9117 93.3636 11.4502 93.2517 11.3149 93.115C11.1313 92.9296 11.0688 90.6913 11.0688 84.3213C11.0688 74.8189 10.9851 75.3612 12.4531 75.3474L13.1197 75.3411V84.3524ZM33.9033 78.6237C37.8314 80.577 39.3425 85.3568 37.2723 89.2799C36.1724 91.3643 34.2513 92.7419 31.8026 93.2018C28.5599 93.811 25.0532 91.9487 23.6178 88.8551C23.1287 87.8009 23.0667 87.4214 23.068 85.4917C23.0692 83.5159 23.1217 83.2163 23.6392 82.2216C25.1946 79.2321 27.6439 77.7707 30.8918 77.8941C32.2831 77.9471 32.789 78.0698 33.9033 78.6237ZM29.6778 79.1217C29.1792 79.5041 28.934 80.3352 29.1483 80.9155C29.4772 81.8056 30.3577 82.1915 31.2609 81.8414C31.7617 81.6473 32.2213 80.6024 32.0714 79.999C31.8276 79.0179 30.4645 78.5183 29.6778 79.1217ZM25.9286 80.8214C24.9345 81.8253 25.6 83.4202 27.0129 83.4202C27.7557 83.4202 28.5014 82.623 28.5014 81.8292C28.5014 81.1705 27.6314 80.3129 26.9633 80.3129C26.671 80.3129 26.2054 80.5417 25.9286 80.8214ZM33.1067 80.8214C32.4915 81.4427 32.4644 82.1503 33.0284 82.8743C33.561 83.5583 34.6586 83.6228 35.2694 83.0059C35.8802 82.3889 35.8164 81.2803 35.1392 80.7423C34.4224 80.1726 33.7218 80.1999 33.1067 80.8214ZM24.5506 84.3006C23.6398 84.9993 23.7794 86.3218 24.827 86.9157C26.3843 87.7984 27.846 85.3836 26.3814 84.3476C25.8529 83.9737 25.0053 83.9519 24.5506 84.3006ZM34.8348 84.2502C34.6523 84.3579 34.3912 84.7184 34.2546 85.0513C33.5358 86.8042 36.1498 88.0057 37.0133 86.3191C37.3933 85.5769 37.2397 84.7747 36.6359 84.3476C36.1476 84.0021 35.3301 83.9579 34.8348 84.2502ZM26.2489 87.8297C24.5904 88.6773 25.759 91.389 27.4737 90.6716C28.7574 90.1345 28.7262 88.2417 27.4259 87.7839C27.0814 87.6625 26.7902 87.5647 26.7789 87.5664C26.7674 87.568 26.5289 87.6865 26.2489 87.8297ZM33.0284 88.3163C32.3346 89.207 32.4964 90.0827 33.4468 90.579C34.5387 91.1493 35.6796 90.4317 35.6796 89.1743C35.6796 87.8309 33.8639 87.2432 33.0284 88.3163ZM29.596 89.5265C28.9994 89.9484 28.8384 90.7555 29.2073 91.4758C30.1272 93.2724 32.6648 91.9914 31.8871 90.1228C31.4986 89.19 30.4553 88.9185 29.596 89.5265Z" fill="#231F20"/>
</svg>

<svg width="105" height="106" fill="none" xmlns="http://www.w3.org/2000/svg"><path opacity=".6" fill-rule="evenodd" clip-rule="evenodd" d="M45.421.239c-3.25.622-6.179 2.153-8.642 4.517-3.176 3.047-4.926 6.794-5.302 11.352l-.146 1.763-1.013.243c-2.124.51-3.053 1.8-3.21 4.454-.052.883-.182 1.606-.288 1.606-.572 0-3.554 1.472-5.105 2.52-4.33 2.926-7.381 7.695-8.29 12.956-.396 2.297-.414 8.495-.026 9.012.657.873 2.112.862 2.58-.02.124-.236.219-1.721.221-3.48.002-1.688.095-3.702.205-4.476.786-5.486 4.192-10.19 9.107-12.574 3.22-1.562 3.162-1.556 13.86-1.556h9.536l1.903.654c5.51 1.891 9.502 6.193 10.91 11.757.408 1.61.415 2.199.415 32.782v31.144h-45.94V53.455l-.475-.45c-.63-.598-1.472-.575-2.098.058l-.503.508v18.662h-.986a4.276 4.276 0 00-4.23 3.574l-.135.777H.844l-.425.546c-.53.68-.541 1.335-.033 1.969.38.474.497.49 3.896.554l3.505.066v9.294H4.724C.932 89.013.02 89.32 0 90.602c-.02 1.47.66 1.726 4.594 1.726H7.78l.117.57c.458 2.21 1.774 3.4 3.914 3.537l1.309.084v6.374h-3.6c-3.547 0-3.605.007-4.101.508-.642.648-.642 1.442 0 2.09l.503.509h93.689l.541-.429c.706-.562.736-1.591.066-2.228l-.475-.45H65.418L65.416 72.7c-.001-18.762-.08-30.877-.207-32-.6-5.295-3.377-10.19-7.603-13.408-1.652-1.257-4.08-2.564-5.61-3.018l-.832-.248-.106-1.76c-.092-1.524-.184-1.862-.69-2.532-.716-.948-1.622-1.531-2.64-1.7-.422-.07-.769-.242-.769-.381 0-.642.479-1.523.943-1.737.712-.327 20.977-.332 21.688-.005.915.421 1.326 2.048.517 2.048-.921 0-2.145.538-2.853 1.253-1.252 1.264-1.538 3.27-.716 5.02.316.673.318.78.024 1.234-.847 1.306-.561 3.598.612 4.91.746.835 1.336 1.141 2.602 1.353l.769.129v23.097c0 25.395-.038 24.546 1.26 27.844 1.267 3.22 3.903 6.635 6.65 8.614 1.645 1.186 4.312 2.459 6.344 3.027 1.552.434 2.11.463 10.405.532l8.765.073.516-.52c.614-.622.659-1.35.123-2.019l-.391-.489-8.684-.119c-8.217-.112-8.766-.143-10.216-.583-4.835-1.465-8.711-4.977-10.556-9.564-1.162-2.887-1.14-2.359-1.14-27.117V31.84h9.434v17.09c0 16.814.007 17.097.41 17.504.519.524 1.452.532 2.08.019l.484-.396.103-17.152.102-17.152.616-.13c.8-.167 1.756-.676 2.197-1.168.993-1.108 1.291-3.507.605-4.866-.362-.718-.362-.771-.008-1.442.51-.966.501-2.864-.017-3.89-.53-1.05-1.483-1.834-2.562-2.108l-.877-.224-.14-1.691c-.387-4.728-2.137-8.455-5.43-11.566-2.286-2.16-4.275-3.284-7.522-4.248C72.004.095 70.583.053 59.367.011 49.67-.026 46.535.026 45.422.239zm27.072 3.288c6.054 1.78 9.895 6.579 10.43 13.034l.117 1.398h-9.362l-.12-1.021c-.228-1.95-1.583-3.701-3.218-4.16-.957-.27-22.218-.27-23.175 0-1.635.459-2.99 2.21-3.22 4.16l-.119 1.021h-9.172l.003-1.398C34.67 11.295 38.398 6 43.463 4.057c2.446-.939 3.3-.989 15.904-.939 10.622.042 12.027.086 13.126.41zm-24.83 17.865c.184.186.322.676.322 1.142v.816l-8.87-.054-8.87-.054-.064-.661c-.043-.453.07-.795.36-1.088.412-.416.617-.426 8.61-.426 7.171 0 8.23.04 8.512.325zm38.967 0c.177.18.322.546.322.814 0 1.148.069 1.14-8.924 1.14h-8.28l-.32-.461c-.421-.609-.402-.905.091-1.404.397-.4.684-.414 8.6-.414 7.17 0 8.228.04 8.51.325zm.076 5.31c.135.136.246.49.246.786 0 .297-.11.65-.246.788-.184.185-2.4.248-8.71.248-8.304 0-8.466-.008-8.686-.422-.24-.452-.087-1.241.288-1.49.126-.084 3.971-.154 8.546-.156 6.198-.003 8.379.06 8.562.245zm-58.307 9.522c-1.82.348-3.97 1.552-5.451 3.052-2.982 3.02-3.934 7.193-2.562 11.228 1.518 4.466 5.506 7.287 10.283 7.274 4.076-.01 7.662-2.247 9.515-5.934 4.05-8.058-2.934-17.313-11.785-15.62zm3.63 3.098c4.857 1.041 7.526 6.264 5.53 10.823-.582 1.327-2.165 2.957-3.62 3.725-1.155.61-1.37.652-3.387.652-2.021 0-2.228-.04-3.384-.655a8.426 8.426 0 01-3.524-3.592c-.525-1.035-.577-1.337-.577-3.314 0-1.966.055-2.29.578-3.364 1.03-2.119 2.782-3.554 5.113-4.188 1.344-.365 1.902-.38 3.271-.087zm-2.42 1.286c-1.104.96-.505 2.624.943 2.624.842 0 1.324-.403 1.543-1.29.113-.456.022-.683-.48-1.19-.745-.753-1.263-.79-2.006-.144zm-3.774 1.588c-.938.948-.226 2.57 1.128 2.57.902 0 1.538-.63 1.538-1.52 0-1.243-1.78-1.944-2.666-1.05zm7.193.132c-.776.997-.344 2.159.921 2.48 1.295.328 2.296-1.626 1.332-2.6-.622-.628-1.715-.57-2.253.12zm-8.546 3.459c-1.118.97-.464 2.624 1.037 2.624 1.559 0 2.016-2.222.592-2.877-.723-.333-1.006-.29-1.63.253zm10.252.002c-1.117.97-.521 2.622.946 2.622.927 0 1.504-.569 1.504-1.485 0-.725-.832-1.622-1.504-1.622-.213 0-.64.218-.946.485zm-8.863 3.723c-.923.993-.22 2.628 1.13 2.628.651 0 1.5-.879 1.5-1.554 0-.722-.854-1.553-1.595-1.553-.35 0-.77.194-1.035.479zm7.236.03c-.277.279-.504.749-.504 1.044 0 .722.854 1.554 1.596 1.554 1.347 0 1.994-1.841.94-2.678-.717-.57-1.417-.542-2.032.08zm-3.617 1.567c-.502.508-.594.735-.48 1.191.209.848.706 1.29 1.449 1.29 1.522 0 2.171-1.638 1.039-2.622-.745-.648-1.263-.612-2.008.141zm54.59 18.995c-.966.353-1.025.581-1.024 3.975 0 3.123.02 3.272.586 4.481.715 1.527 2.099 2.818 3.646 3.403 1.05.397 1.575.421 8.91.421h7.795l.504-.508c.276-.28.503-.75.503-1.045 0-.296-.227-.766-.503-1.045l-.504-.509h-7.565c-7.522 0-7.57-.003-8.47-.482-1.525-.812-1.819-1.593-1.823-4.84-.003-2.543-.035-2.77-.465-3.246-.498-.555-1.1-.783-1.59-.605zm-56.376 4.93c-2.925.828-5.426 2.952-6.787 5.763-1.61 3.327-1.56 6.514.156 9.977.694 1.4 3.145 3.83 4.557 4.516 3.525 1.714 7.72 1.497 10.767-.558 2.635-1.778 4.42-4.609 4.862-7.71.703-4.945-2.222-9.855-6.967-11.695-1.544-.6-4.968-.751-6.588-.292zM13.12 84.353v9.012h-.78c-.428 0-.89-.112-1.025-.249-.184-.185-.246-2.424-.246-8.794 0-9.502-.084-8.96 1.384-8.974l.667-.006v9.011zm20.783-5.728c3.928 1.953 5.44 6.733 3.37 10.656-1.1 2.084-3.022 3.462-5.47 3.922-3.243.609-6.75-1.253-8.185-4.347-.49-1.054-.551-1.434-.55-3.363.001-1.976.054-2.276.571-3.27 1.556-2.99 4.005-4.451 7.253-4.328 1.391.053 1.897.176 3.011.73zm-4.225.498c-.499.382-.744 1.213-.53 1.793.33.89 1.21 1.276 2.113.926.5-.194.96-1.239.81-1.842-.243-.981-1.606-1.48-2.393-.877zm-3.75 1.7c-.994 1.003-.328 2.598 1.085 2.598.743 0 1.488-.797 1.488-1.59 0-.66-.87-1.517-1.538-1.517-.292 0-.758.229-1.034.508zm7.179 0c-.615.62-.643 1.328-.079 2.052.533.684 1.63.749 2.241.132.611-.617.547-1.726-.13-2.264-.717-.57-1.417-.542-2.032.08zM24.55 84.3c-.911.698-.772 2.02.276 2.615 1.557.882 3.019-1.532 1.554-2.568-.528-.374-1.376-.396-1.83-.047zm10.284-.05c-.183.107-.444.467-.58.8-.72 1.753 1.895 2.955 2.758 1.268.38-.742.227-1.544-.377-1.971-.488-.346-1.306-.39-1.801-.098zm-8.586 3.579c-1.659.847-.49 3.559 1.225 2.842 1.283-.537 1.252-2.43-.048-2.888a12.53 12.53 0 00-.647-.218c-.012.002-.25.12-.53.264zm6.78.486c-.694.891-.533 1.767.418 2.263 1.092.57 2.233-.147 2.233-1.405 0-1.343-1.816-1.93-2.652-.858zm-3.433 1.21c-.597.422-.758 1.23-.389 1.95.92 1.796 3.458.515 2.68-1.353-.388-.933-1.432-1.205-2.291-.597z" fill="#231F20"/></svg>
